icons/bhi_industry.svg

<svg xmlns="http://www.w3.org/2000/svg" viewBox="0 0 512 512" enable-background="new 0 0 512 512"><path fill="#010101" d="M480 459v-458.8l-96-.2v192h-274.3l-77.7 94.7v172.3h-32v53h512v-53h-32zm-298.9-10.4h-72.3v-72.3h72.3v72.3zm0-110.2h-72.3v-72.4h72.3v72.4zm116.5 110.2h-72.4v-72.3h72.4v72.3zm0-110.2h-72.4v-72.4h72.4v72.4zm122.9 110.2h-72.3v-72.3h72.3v72.3zm0-110.2h-72.3v-72.4h72.3v72.4z"/></svg>

<?xml version="1.0" encoding="utf-8"?>
<!-- Generator: Adobe Illustrator 19.2.0, SVG Export Plug-In . SVG Version: 6.00 Build 0)  -->
<svg version="1.1" id="Layer_1" xmlns="http://www.w3.org/2000/svg" xmlns:xlink="http://www.w3.org/1999/xlink" x="0px" y="0px"
	 viewBox="0 0 512 512" enable-background="new 0 0 512 512" xml:space="preserve">
<path fill="#010101" d="M480,459V0.2L384,0v192H109.7L32,286.7V459H0v53h512v-53H480z M181.1,448.6h-72.3v-72.3h72.3V448.6z
	 M181.1,338.4h-72.3V266h72.3V338.4z M297.6,448.6h-72.4v-72.3h72.4V448.6z M297.6,338.4h-72.4V266h72.4V338.4z M420.5,448.6h-72.3
	v-72.3h72.3V448.6z M420.5,338.4h-72.3V266h72.3V338.4z"/>
</svg>
